icons/svg/tourist/locomotive.svg

<?xml version="1.0" encoding="UTF-8" standalone="no"?>
<!-- Created with Inkscape (http://www.inkscape.org/) -->

<svg
   xmlns:dc="http://purl.org/dc/elements/1.1/"
   xmlns:cc="http://creativecommons.org/ns#"
   xmlns:rdf="http://www.w3.org/1999/02/22-rdf-syntax-ns#"
   xmlns:svg="http://www.w3.org/2000/svg"
   xmlns="http://www.w3.org/2000/svg"
   xmlns:sodipodi="http://sodipodi.sourceforge.net/DTD/sodipodi-0.dtd"
   xmlns:inkscape="http://www.inkscape.org/namespaces/inkscape"
   version="1.0"
   width="580"
   height="580"
   id="svg2"
   sodipodi:version="0.32"
   inkscape:version="0.91 r"
   sodipodi:docname="locomotive.svg"
   inkscape:output_extension="org.inkscape.output.svg.inkscape">
  <metadata
     id="metadata2975">
    <rdf:RDF>
      <cc:Work
         rdf:about="">
        <dc:format>image/svg+xml</dc:format>
        <dc:type
           rdf:resource="http://purl.org/dc/dcmitype/StillImage" />
        <cc:license
           rdf:resource="http://web.resource.org/cc/PublicDomain" />
        <dc:language>en</dc:language>
        <dc:title />
      </cc:Work>
    </rdf:RDF>
  </metadata>
  <sodipodi:namedview
     inkscape:window-height="1006"
     inkscape:window-width="1920"
     inkscape:pageshadow="2"
     inkscape:pageopacity="0.0"
     guidetolerance="10.0"
     gridtolerance="10.0"
     objecttolerance="10.0"
     borderopacity="1.0"
     bordercolor="#666666"
     pagecolor="#ffffff"
     id="base"
     inkscape:zoom="0.92167712"
     inkscape:cx="241.54054"
     inkscape:cy="320.62267"
     inkscape:window-x="1920"
     inkscape:window-y="0"
     inkscape:current-layer="svg2"
     showgrid="false"
     inkscape:window-maximized="1" />
  <defs
     id="defs4">
    <inkscape:perspective
       sodipodi:type="inkscape:persp3d"
       inkscape:vp_x="0 : 290 : 1"
       inkscape:vp_y="0 : 1000 : 0"
       inkscape:vp_z="580 : 290 : 1"
       inkscape:persp3d-origin="290 : 193.33333 : 1"
       id="perspective2441" />
    <inkscape:perspective
       id="perspective3452"
       inkscape:persp3d-origin="30 : 20 : 1"
       inkscape:vp_z="60 : 30 : 1"
       inkscape:vp_y="0 : 1000 : 0"
       inkscape:vp_x="0 : 30 : 1"
       sodipodi:type="inkscape:persp3d" />
    <symbol
       viewBox="244.5 110 489 219.9"
       id="symbol-university">
      <path
         id="path4460"
         d="M79,43l57,119c0,0,21-96,104-96s124,106,124,106l43-133l82-17L0,17L79,43z" />
      <path
         id="path4462"
         d="M94,176l-21,39"
         stroke-width="20"
         stroke="#000000"
         fill="none" />
      <path
         id="path4464"
         d="M300,19c0,10.5-22.6,19-50.5,19S199,29.5,199,19s22.6-19,50.5-19S300,8.5,300,19z" />
      <path
         id="path4466"
         d="M112,216l-16-38L64,88c0,0-9-8-4-35s16-24,16-24"
         stroke-width="20"
         stroke="#000000"
         ill="none" />
    </symbol>
    <inkscape:perspective
       id="perspective4471"
       inkscape:persp3d-origin="372.04724 : 350.78739 : 1"
       inkscape:vp_z="744.09448 : 526.18109 : 1"
       inkscape:vp_y="0 : 1000 : 0"
       inkscape:vp_x="0 : 526.18109 : 1"
       sodipodi:type="inkscape:persp3d" />
    <inkscape:perspective
       id="perspective4668"
       inkscape:persp3d-origin="6 : 4 : 1"
       inkscape:vp_z="12 : 6 : 1"
       inkscape:vp_y="0 : 1000 : 0"
       inkscape:vp_x="0 : 6 : 1"
       sodipodi:type="inkscape:persp3d" />
    <inkscape:perspective
       id="perspective4904"
       inkscape:persp3d-origin="16 : 10.666667 : 1"
       inkscape:vp_z="32 : 16 : 1"
       inkscape:vp_y="0 : 1000 : 0"
       inkscape:vp_x="0 : 16 : 1"
       sodipodi:type="inkscape:persp3d" />
  </defs>
  <g
     id="g1327"
     transform="translate(0.0735,-0.43022222)">
    <path
       d="M 66.275,1.768 C 24.94,1.768 1.704,23.139 1.704,66.804 l 0,450.123 c 0,40.844 20.895,62.229 62.192,62.229 l 452.024,0 c 41.307,0 62.229,-20.315 62.229,-62.229 l 0,-450.123 c 0,-42.601 -20.922,-65.036 -63.521,-65.036 -0.004,0 -448.495,-0.143 -448.353,0 z"
       style="fill:#111111;stroke:#eeeeee;stroke-width:3.40799999"
       id="path1329"
       inkscape:connector-curvature="0" />
  </g>
  <rect
     y="-69.882286"
     x="207.25069"
     style="fill:none"
     width="376.44794"
     height="376.44794"
     id="rect3" />
  <path
     style="fill:#ffffff;fill-opacity:1;stroke:none"
     d="m 448.70384,439.63277 c 15.09504,-7.43852 29.44286,-25.62834 32.57734,-41.30069 2.28728,-11.43638 2.84316,-11.72715 22.42017,-11.72715 16.37589,0 21.74967,-1.67494 29.16516,-9.09046 19.08498,-19.08497 5.3176,-50.16577 -22.22108,-50.16577 -10.66162,0 -13.13065,-1.39278 -13.13065,-7.40703 0,-7.32475 -2.47945,-7.38286 -222.2109,-5.24046 l -222.210916,0 0,34.86858 0,37.03514 21.808931,0 21.808921,0 2.470502,13.16889 c 3.282492,17.49737 26.943812,41.15869 44.441192,44.44119 7.24288,1.35878 19.09487,1.35878 26.33777,0 17.49736,-3.2825 41.15868,-26.94382 44.44117,-44.44119 3.41949,-18.22747 14.68692,-18.22747 18.10641,0 3.28251,17.49737 26.94383,41.15869 44.44119,44.44119 7.2429,1.35878 19.09488,1.35878 26.33775,0 17.4974,-3.2825 41.1587,-26.94382 44.44122,-44.44119 3.25928,-17.37359 14.51193,-18.28093 17.87978,-1.44174 7.28259,36.41296 49.9649,57.62707 83.09604,41.30069 z M 404.1868,421.161 c -35.46769,-20.95126 -21.01846,-75.16938 20.03278,-75.16938 31.01446,0 49.84323,32.36025 35.24937,60.58165 -9.63898,18.63971 -36.44719,25.71381 -55.28215,14.58773 z m -132.81627,-0.69387 c -34.81288,-20.56447 -20.63041,-73.78164 19.66294,-73.78164 30.44191,0 48.92308,31.76283 34.59865,59.46324 -9.46102,18.29559 -35.77432,25.23907 -54.26159,14.3184 z m -133.18339,-0.19464 c -34.62919,-20.45596 -20.52158,-73.39235 19.55918,-73.39235 30.28129,0 48.66497,31.59524 34.41611,59.14949 -9.41113,18.19906 -35.58557,25.1059 -53.97529,14.24286 z M 523.53913,281.98064 c 13.65368,-30.07974 6.73763,-67.48866 -14.73647,-79.7095 -9.74415,-5.54534 -20.05264,-8.4932 -20.07299,-22.13718 l -0.0235,-15.73992 -29.62811,0 -29.62813,0 0,14.81406 0,14.81405 -109.70394,0 -116.34592,0 0,51.84922 0,51.8492 155.41391,0 157.58046,0 7.14463,-15.73993 z m -337.11961,-65.73739 0,-81.47734 -74.07032,0 -74.070296,0 0,33.02794 c 0,9.53661 2.446502,16.45412 7.40703,20.94334 6.831512,6.18241 7.40703,32.56981 7.40703,48.44938 l 0,60.534 66.663266,0 66.66329,0 z m -88.884375,-22.2211 0,-29.62811 29.628115,0 29.62812,0 0,29.62811 0,29.62813 -29.62812,0 -29.628115,0 z"
     id="path4179"
     inkscape:connector-curvature="0"
     sodipodi:nodetypes="ssssssscccccsssssssssssssssssssssscsscccccccccccccccccsssccccccccccccc" />
</svg>

<svg width="580" height="580" viewBox="0 0 580 580" fill="none" xmlns="http://www.w3.org/2000/svg">
<g clip-path="url(#clip0)">
<path d="M66.3483 1.33797C25.0133 1.33797 1.77734 22.709 1.77734 66.374V516.497C1.77734 557.341 22.6723 578.726 63.9693 578.726H515.993C557.3 578.726 578.222 558.411 578.222 516.497V66.374C578.222 23.773 557.3 1.33797 514.701 1.33797C514.697 1.33797 66.2063 1.19497 66.3483 1.33797V1.33797Z" fill="#111111" stroke="#EEEEEE" stroke-width="3.408"/>
<path d="M448.704 439.633C463.799 432.194 478.147 414.005 481.282 398.332C483.569 386.896 484.125 386.605 503.702 386.605C520.078 386.605 525.451 384.93 532.867 377.515C551.952 358.43 538.184 327.349 510.646 327.349C499.984 327.349 497.515 325.956 497.515 319.942C497.515 312.617 495.036 312.559 275.304 314.701H53.0934V349.57V386.605H74.9023H96.7112L99.1817 399.774C102.464 417.271 126.126 440.933 143.623 444.215C150.866 445.574 162.718 445.574 169.961 444.215C187.458 440.933 211.119 417.271 214.402 399.774C217.821 381.547 229.089 381.547 232.508 399.774C235.791 417.271 259.452 440.933 276.949 444.215C284.192 445.574 296.044 445.574 303.287 444.215C320.785 440.933 344.446 417.271 347.728 399.774C350.988 382.4 362.24 381.493 365.608 398.332C372.891 434.745 415.573 455.959 448.704 439.633V439.633ZM404.187 421.161C368.72 400.21 383.169 345.992 424.22 345.992C455.234 345.992 474.063 378.352 459.469 406.573C449.83 425.213 423.022 432.287 404.187 421.161V421.161ZM271.371 420.467C236.558 399.903 250.741 346.686 291.034 346.686C321.476 346.686 339.957 378.449 325.633 406.149C316.171 424.445 289.858 431.388 271.371 420.467ZM138.188 420.273C103.558 399.817 117.666 346.88 157.747 346.88C188.028 346.88 206.412 378.476 192.163 406.03C182.752 424.229 156.577 431.136 138.188 420.273ZM523.54 281.981C537.193 251.901 530.277 214.492 508.803 202.271C499.059 196.726 488.75 193.778 488.73 180.134L488.707 164.394H459.078H429.45V179.208V194.022H319.746H203.4V245.872V297.721H358.814H516.395L523.539 281.981H523.54ZM186.42 216.243V134.766H112.35H38.2793V167.794C38.2793 177.331 40.7258 184.248 45.6863 188.737C52.5178 194.92 53.0934 221.307 53.0934 237.187V297.721H119.757H186.42V216.243ZM97.5355 194.022V164.394H127.164H156.792V194.022V223.65H127.164H97.5355V194.022Z" fill="white"/>
</g>
<defs>
<clipPath id="clip0">
<path d="M0 0H580V580H0V0Z" fill="white"/>
</clipPath>
</defs>
</svg>
